snowman.svg

<svg fill="currentColor" viewBox="0 0 24 24"><path d="M17 17a5 5 0 0 1-5 5 5 5 0 0 1-5-5c0-1.5.65-2.83 1.69-3.75C8.26 12.61 8 11.83 8 11v-.41L5.04 8.87l-.21-.16-2.54.68-.26-.96 2.21-.59-1.98-1.15.5-.87 1.98 1.15-.59-2.22.96-.25.69 2.54.24.1 2.69 1.55a3.9 3.9 0 0 1 1.49-1.27C9.5 6.87 9 6 9 5a3 3 0 0 1 3-3 3 3 0 0 1 3 3c0 1-.5 1.87-1.22 2.42.6.29 1.11.73 1.49 1.27l2.69-1.55.24-.1.69-2.54.96.25-.59 2.22 1.98-1.15.5.87-1.98 1.15 2.21.59-.26.96-2.54-.68-.21.16L16 10.59V11c0 .83-.26 1.61-.69 2.25C16.35 14.17 17 15.5 17 17"/></svg>

<svg  viewBox="0 0 24 24" fill="currentColor"><path  d="M17,17A5,5 0 0,1 12,22A5,5 0 0,1 7,17C7,15.5 7.65,14.17 8.69,13.25C8.26,12.61 8,11.83 8,11C8,10.86 8,10.73 8,10.59L5.04,8.87L4.83,8.71L2.29,9.39L2.03,8.43L4.24,7.84L2.26,6.69L2.76,5.82L4.74,6.97L4.15,4.75L5.11,4.5L5.8,7.04L6.04,7.14L8.73,8.69C9.11,8.15 9.62,7.71 10.22,7.42C9.5,6.87 9,6 9,5A3,3 0 0,1 12,2A3,3 0 0,1 15,5C15,6 14.5,6.87 13.78,7.42C14.38,7.71 14.89,8.15 15.27,8.69L17.96,7.14L18.2,7.04L18.89,4.5L19.85,4.75L19.26,6.97L21.24,5.82L21.74,6.69L19.76,7.84L21.97,8.43L21.71,9.39L19.17,8.71L18.96,8.87L16,10.59V11C16,11.83 15.74,12.61 15.31,13.25C16.35,14.17 17,15.5 17,17Z"/></svg>
